; generated by PrusaSlicer 2.2.0+win64 on 2020-11-05 at 01:03:03 UTC

; 

; external perimeters extrusion width = 0.45mm
; perimeters extrusion width = 0.45mm
; infill extrusion width = 0.45mm
; solid infill extrusion width = 0.45mm
; top infill extrusion width = 0.40mm
; first layer extrusion width = 0.70mm

M107
G90 ; use absolute coordinates
M83 ; extruder relative mode
M104 S0 ; turn off temperature
M104 S215 ; set extruder temp
M140 S70 ; set bed temp
M190 S70 ; wait for bed temp
G28 ; home all axes
G1 Z5 F5000 ; lift nozzle
G21 ; set units to millimeters
G90 ; use absolute coordinates
M83 ; use relative distances for extrusion
; Filament gcode
G1 E-0.80000 F2100.00000
G1 Z0.200 F7800.000
G1 Z0.350
G1 Z0.550
G1 X68.927 Y57.208
G1 Z0.350
G1 E0.80000 F2100.00000
G1 F1800.000
G1 X69.918 Y56.346 E0.11949
G1 X71.066 Y55.693 E0.12007
G1 X72.315 Y55.282 E0.11949
G1 X73.626 Y55.126 E0.12007
G1 X180.256 Y55.125 E9.69586
G1 X181.514 Y55.247 E0.11489
G1 X182.726 Y55.605 E0.11489
G1 X183.847 Y56.187 E0.11489
G1 X184.838 Y56.971 E0.11489
G1 X185.662 Y57.929 E0.11489
G1 X186.291 Y59.032 E0.11546
G1 X186.698 Y60.228 E0.11489
G1 X186.869 Y61.480 E0.11489
G1 X186.874 Y168.358 E9.71840
G1 X186.741 Y169.576 E0.11143
G1 X186.388 Y170.743 E0.11086
G1 X185.824 Y171.831 E0.11143
G1 X185.073 Y172.792 E0.11086
G1 X184.061 Y173.669 E0.12179
G1 X182.887 Y174.327 E0.12237
G1 X181.604 Y174.735 E0.12237
G1 X180.266 Y174.875 E0.12237
G1 X73.642 Y174.874 E9.69528
G1 X72.424 Y174.741 E0.11143
G1 X71.257 Y174.388 E0.11086
G1 X70.169 Y173.824 E0.11143
G1 X69.208 Y173.073 E0.11086
G1 X68.331 Y172.061 E0.12179
G1 X67.673 Y170.887 E0.12237
G1 X67.265 Y169.604 E0.12237
G1 X67.125 Y168.266 E0.12237
G1 X67.126 Y61.642 E9.69528
G1 X67.259 Y60.424 E0.11143
G1 X67.612 Y59.257 E0.11086
G1 X68.176 Y58.169 E0.11143
G1 X68.890 Y57.255 E0.10540
G1 F6240.000
G1 X69.918 Y56.346 E-0.43899
G1 X70.791 Y55.849 E-0.32101
G1 E-0.04000 F2100.00000
G1 Z0.550 F7800.000
G1 X171.989 Y140.531
G1 Z0.350
G1 E0.80000 F2100.00000
G1 F1800.000
G1 X166.411 Y140.531 E0.50722
G1 X165.466 Y138.895 E0.17177
G1 X163.622 Y135.700 E0.33545
G1 X166.411 Y130.869 E0.50722
G1 X171.989 Y130.869 E0.50722
G1 X174.778 Y135.700 E0.50722
G1 X172.019 Y140.479 E0.50177
G1 X171.628 Y139.906 F7800.000
G1 F1800.000
G1 X166.772 Y139.906 E0.44161
G1 X166.008 Y138.582 E0.13897
G1 X164.343 Y135.700 E0.30264
G1 X166.772 Y131.494 E0.44161
G1 X171.628 Y131.494 E0.44161
G1 X174.057 Y135.700 E0.44161
G1 X171.658 Y139.854 E0.43616
G1 X171.268 Y139.281 F7800.000
G1 F1800.000
G1 X167.132 Y139.281 E0.37600
G1 X166.549 Y138.270 E0.10616
G1 X165.065 Y135.700 E0.26984
G1 X167.132 Y132.119 E0.37600
G1 X171.268 Y132.119 E0.37600
G1 X173.335 Y135.700 E0.37600
G1 X171.298 Y139.229 E0.37055
G1 X171.268 Y139.681 F7800.000
G1 F6240.000
G1 X168.921 Y139.259 E-0.76000
G1 E-0.04000 F2100.00000
G1 Z0.550 F7800.000
G1 X166.511 Y64.169
G1 Z0.350
G1 E0.80000 F2100.00000
G1 F1800.000
G1 X172.089 Y64.169 E0.50722
G1 X174.878 Y69.000 E0.50722
G1 X172.089 Y73.831 E0.50722
G1 X166.511 Y73.831 E0.50722
G1 X163.722 Y69.000 E0.50722
G1 X166.481 Y64.221 E0.50177
G1 X166.872 Y64.794 F7800.000
G1 F1800.000
G1 X171.728 Y64.794 E0.44161
G1 X174.157 Y69.000 E0.44161
G1 X171.728 Y73.206 E0.44161
G1 X166.872 Y73.206 E0.44161
G1 X164.443 Y69.000 E0.44161
G1 X166.842 Y64.846 E0.43616
G1 X167.232 Y65.419 F7800.000
G1 F1800.000
G1 X171.368 Y65.419 E0.37600
G1 X171.730 Y66.048 E0.06600
G1 X173.435 Y69.000 E0.31000
G1 X171.368 Y72.581 E0.37600
G1 X167.232 Y72.581 E0.37600
G1 X165.165 Y69.000 E0.37600
G1 X167.202 Y65.471 E0.37055
G1 X167.232 Y65.019 F7800.000
G1 F6240.000
G1 X169.579 Y65.441 E-0.76000
G1 E-0.04000 F2100.00000
G1 Z0.550 F7800.000
G1 X90.378 Y69.100
G1 Z0.350
G1 E0.80000 F2100.00000
G1 F1800.000
G1 X87.589 Y73.931 E0.50722
G1 X82.011 Y73.931 E0.50722
G1 X79.222 Y69.100 E0.50722
G1 X82.011 Y64.269 E0.50722
G1 X87.589 Y64.269 E0.50722
G1 X90.348 Y69.048 E0.50177
G1 X89.657 Y69.100 F7800.000
G1 F1800.000
G1 X87.228 Y73.306 E0.44161
G1 X82.372 Y73.306 E0.44161
G1 X79.943 Y69.100 E0.44161
G1 X82.372 Y64.894 E0.44161
G1 X87.228 Y64.894 E0.44161
G1 X89.627 Y69.048 E0.43616
G1 X88.935 Y69.100 F7800.000
G1 F1800.000
G1 X86.868 Y72.681 E0.37600
G1 X82.732 Y72.681 E0.37600
G1 X80.665 Y69.100 E0.37600
G1 X82.732 Y65.519 E0.37600
G1 X86.868 Y65.519 E0.37600
G1 X88.905 Y69.048 E0.37055
G1 X89.281 Y69.300 F7800.000
G1 F6240.000
G1 X87.742 Y71.121 E-0.76000
G1 E-0.04000 F2100.00000
G1 Z0.550 F7800.000
G1 X87.489 Y130.969
G1 Z0.350
G1 E0.80000 F2100.00000
G1 F1800.000
G1 X90.278 Y135.800 E0.50722
G1 X87.489 Y140.631 E0.50722
G1 X81.911 Y140.631 E0.50722
G1 X79.122 Y135.800 E0.50722
G1 X81.911 Y130.969 E0.50722
G1 X87.429 Y130.969 E0.50177
G1 X87.128 Y131.594 F7800.000
G1 F1800.000
G1 X89.557 Y135.800 E0.44161
G1 X87.128 Y140.006 E0.44161
G1 X82.272 Y140.006 E0.44161
G1 X79.843 Y135.800 E0.44161
G1 X82.272 Y131.594 E0.44161
G1 X87.068 Y131.594 E0.43616
G1 X86.768 Y132.219 F7800.000
G1 F1800.000
G1 X88.835 Y135.800 E0.37600
G1 X86.768 Y139.381 E0.37600
G1 X82.632 Y139.381 E0.37600
G1 X80.565 Y135.800 E0.37600
G1 X82.632 Y132.219 E0.37600
G1 X86.708 Y132.219 E0.37054
G1 X87.114 Y132.019 F7800.000
G1 F6240.000
G1 X87.922 Y134.263 E-0.76000
G1 E-0.04000 F2100.00000
G1 Z0.550 F7800.000
G1 X75.550 Y166.450
G1 Z0.350
G1 E0.80000 F2100.00000
G1 F1800.000
G1 X75.550 Y63.550 E9.35670
G1 X178.450 Y63.550 E9.35670
G1 X178.450 Y166.450 E9.35670
G1 X75.610 Y166.450 E9.35124
G1 X74.925 Y167.075 F7800.000
G1 F1800.000
G1 X74.925 Y62.925 E9.47034
G1 X179.075 Y62.925 E9.47034
G1 X179.075 Y167.075 E9.47034
G1 X74.985 Y167.075 E9.46488
G1 X74.300 Y167.700 F7800.000
G1 F1800.000
G1 X74.300 Y62.300 E9.58398
G1 X179.700 Y62.300 E9.58398
G1 X179.700 Y167.700 E9.58398
G1 X74.360 Y167.700 E9.57852
G1 X74.404 Y167.314 F7800.000
G1 F6240.000
G1 X74.359 Y165.323 E-0.76000
G1 E-0.04000 F2100.00000
G1 Z0.550 F7800.000
G1 X77.002 Y166.263
G1 Z0.350
G1 E0.80000 F2100.00000
G1 F1800.000
G1 X76.018 Y165.280 E0.12651
G1 X76.018 Y164.395 E0.08048
G1 X77.605 Y165.982 E0.20413
G1 X78.489 Y165.982 E0.08048
G1 X76.018 Y163.511 E0.31794
G1 X76.018 Y162.627 E0.08048
G1 X79.373 Y165.982 E0.43175
G1 X80.258 Y165.982 E0.08048
G1 X76.018 Y161.742 E0.54556
G1 X76.018 Y160.858 E0.08048
G1 X81.142 Y165.982 E0.65937
G1 X82.027 Y165.982 E0.08048
G1 X76.018 Y159.973 E0.77318
G1 X76.018 Y159.089 E0.08048
G1 X82.911 Y165.982 E0.88699
G1 X83.795 Y165.982 E0.08048
G1 X76.018 Y158.205 E1.00080
G1 X76.018 Y157.320 E0.08048
G1 X84.680 Y165.982 E1.11461
G1 X85.564 Y165.982 E0.08048
G1 X76.018 Y156.436 E1.22842
G1 X76.018 Y155.552 E0.08048
G1 X86.448 Y165.982 E1.34223
G1 X87.333 Y165.982 E0.08048
G1 X76.018 Y154.667 E1.45604
G1 X76.018 Y153.783 E0.08048
G1 X88.217 Y165.982 E1.56985
G1 X89.102 Y165.982 E0.08048
G1 X76.018 Y152.898 E1.68366
G1 X76.018 Y152.014 E0.08048
G1 X89.986 Y165.982 E1.79747
G1 X90.870 Y165.982 E0.08048
G1 X76.018 Y151.130 E1.91128
G1 X76.018 Y150.245 E0.08048
G1 X91.755 Y165.982 E2.02509
G1 X92.639 Y165.982 E0.08048
G1 X76.018 Y149.361 E2.13890
G1 X76.018 Y148.476 E0.08048
G1 X93.523 Y165.982 E2.25270
G1 X94.408 Y165.982 E0.08048
G1 X76.018 Y147.592 E2.36651
G1 X76.018 Y146.708 E0.08048
G1 X95.292 Y165.982 E2.48032
G1 X96.177 Y165.982 E0.08048
G1 X76.018 Y145.823 E2.59413
G1 X76.018 Y144.939 E0.08048
G1 X97.061 Y165.982 E2.70794
G1 X97.945 Y165.982 E0.08048
G1 X76.018 Y144.055 E2.82175
G1 X76.018 Y143.170 E0.08048
G1 X98.830 Y165.982 E2.93556
G1 X99.714 Y165.982 E0.08048
G1 X76.018 Y142.286 E3.04937
G1 X76.018 Y141.401 E0.08048
G1 X100.599 Y165.982 E3.16318
G1 X101.483 Y165.982 E0.08048
G1 X76.018 Y140.517 E3.27699
G1 X76.018 Y139.633 E0.08048
G1 X102.367 Y165.982 E3.39080
G1 X103.252 Y165.982 E0.08048
G1 X76.018 Y138.748 E3.50461
G1 X76.018 Y137.864 E0.08048
G1 X104.136 Y165.982 E3.61842
G1 X105.020 Y165.982 E0.08048
G1 X76.018 Y136.980 E3.73223
G1 X76.018 Y136.095 E0.08048
G1 X106.186 Y166.263 E3.88222
G1 F6240.000
G1 X104.505 Y164.582 E-0.76000
G1 E-0.04000 F2100.00000
G1 Z0.550 F7800.000
G1 X122.989 Y166.263
G1 Z0.350
G1 E0.80000 F2100.00000
G1 F1800.000
G1 X88.487 Y131.761 E4.43998
G1 X89.696 Y133.854 E0.21986
G1 X121.824 Y165.982 E4.13452
G1 X120.939 Y165.982 E0.08048
G1 X90.797 Y135.839 E3.87899
G1 X90.473 Y136.400 E0.05891
G1 X120.055 Y165.982 E3.80684
G1 X119.170 Y165.982 E0.08048
G1 X90.149 Y136.960 E3.73469
G1 X89.826 Y137.521 E0.05891
G1 X118.286 Y165.982 E3.66254
G1 X117.402 Y165.982 E0.08048
G1 X89.502 Y138.082 E3.59038
G1 X89.178 Y138.642 E0.05891
G1 X116.517 Y165.982 E3.51823
G1 X115.633 Y165.982 E0.08048
G1 X88.855 Y139.203 E3.44608
G1 X88.531 Y139.764 E0.05891
G1 X114.749 Y165.982 E3.37393
G1 X113.864 Y165.982 E0.08048
G1 X88.207 Y140.325 E3.30177
G1 X87.883 Y140.885 E0.05891
G1 X112.980 Y165.982 E3.22962
G1 X112.095 Y165.982 E0.08048
G1 X87.213 Y141.100 E3.20204
G1 X86.329 Y141.100 E0.08048
G1 X111.211 Y165.982 E3.20204
G1 X110.327 Y165.982 E0.08048
G1 X85.445 Y141.100 E3.20204
G1 X84.560 Y141.100 E0.08048
G1 X109.442 Y165.982 E3.20204
G1 X108.558 Y165.982 E0.08048
G1 X83.676 Y141.100 E3.20204
G1 X82.792 Y141.100 E0.08048
G1 X107.674 Y165.982 E3.20204
G1 X106.789 Y165.982 E0.08048
G1 X76.018 Y135.211 E3.95985
G1 X76.018 Y134.326 E0.08048
G1 X80.068 Y138.376 E0.52111
G1 X78.860 Y136.283 E0.21986
G1 X76.018 Y133.442 E0.36564
G1 X76.018 Y132.558 E0.08048
G1 X78.830 Y135.369 E0.36176
G1 X79.153 Y134.808 E0.05891
G1 X76.018 Y131.673 E0.40342
G1 X76.018 Y130.789 E0.08048
G1 X79.477 Y134.247 E0.44508
G1 X79.801 Y133.687 E0.05891
G1 X76.018 Y129.905 E0.48674
G1 X76.018 Y129.020 E0.08048
G1 X80.124 Y133.126 E0.52839
G1 X80.448 Y132.565 E0.05891
G1 X76.018 Y128.136 E0.57005
G1 X76.018 Y127.251 E0.08048
G1 X80.772 Y132.005 E0.61171
G1 X81.096 Y131.444 E0.05891
G1 X76.018 Y126.367 E0.65336
G1 X76.018 Y125.483 E0.08048
G1 X81.419 Y130.883 E0.69502
G1 X81.640 Y130.500 E0.04024
G1 X81.921 Y130.500 E0.02551
G1 X76.018 Y124.598 E0.75955
G1 X76.018 Y123.714 E0.08048
G1 X82.805 Y130.500 E0.87336
G1 X83.689 Y130.500 E0.08048
G1 X76.018 Y122.830 E0.98716
G1 X76.018 Y121.945 E0.08048
G1 X84.574 Y130.500 E1.10097
G1 X85.458 Y130.500 E0.08048
G1 X76.018 Y121.061 E1.21478
G1 X76.018 Y120.176 E0.08048
G1 X86.343 Y130.500 E1.32859
G1 X87.227 Y130.500 E0.08048
G1 X76.018 Y119.292 E1.44240
G1 X76.018 Y118.408 E0.08048
G1 X123.592 Y165.982 E6.12223
G1 X124.477 Y165.982 E0.08048
G1 X76.018 Y117.523 E6.23604
G1 X76.018 Y116.639 E0.08048
G1 X125.361 Y165.982 E6.34985
G1 X126.246 Y165.982 E0.08048
G1 X76.018 Y115.754 E6.46365
G1 X76.018 Y114.870 E0.08048
G1 X127.130 Y165.982 E6.57746
G1 X128.014 Y165.982 E0.08048
G1 X76.018 Y113.986 E6.69127
G1 X76.018 Y113.101 E0.08048
G1 X128.899 Y165.982 E6.80508
G1 X129.783 Y165.982 E0.08048
G1 X76.018 Y112.217 E6.91889
G1 X76.018 Y111.333 E0.08048
G1 X130.667 Y165.982 E7.03270
G1 X131.552 Y165.982 E0.08048
G1 X76.018 Y110.448 E7.14651
G1 X76.018 Y109.564 E0.08048
G1 X132.436 Y165.982 E7.26032
G1 X133.321 Y165.982 E0.08048
G1 X76.018 Y108.679 E7.37413
G1 X76.018 Y107.795 E0.08048
G1 X134.205 Y165.982 E7.48794
G1 X135.089 Y165.982 E0.08048
G1 X76.018 Y106.911 E7.60175
G1 X76.018 Y106.026 E0.08048
G1 X135.974 Y165.982 E7.71556
G1 X136.858 Y165.982 E0.08048
G1 X76.018 Y105.142 E7.82937
G1 X76.018 Y104.258 E0.08048
G1 X137.742 Y165.982 E7.94318
G1 X138.627 Y165.982 E0.08048
G1 X76.018 Y103.373 E8.05699
G1 X76.018 Y102.489 E0.08048
G1 X139.511 Y165.982 E8.17080
G1 X140.396 Y165.982 E0.08048
G1 X76.018 Y101.604 E8.28461
G1 X76.018 Y100.720 E0.08048
G1 X141.280 Y165.982 E8.39842
G1 X142.164 Y165.982 E0.08048
G1 X76.018 Y99.836 E8.51222
G1 X76.018 Y98.951 E0.08048
G1 X143.049 Y165.982 E8.62603
G1 X143.933 Y165.982 E0.08048
G1 X76.018 Y98.067 E8.73984
G1 X76.018 Y97.183 E0.08048
G1 X144.817 Y165.982 E8.85365
G1 X145.702 Y165.982 E0.08048
G1 X76.018 Y96.298 E8.96746
G1 X76.018 Y95.414 E0.08048
G1 X146.586 Y165.982 E9.08127
G1 X147.471 Y165.982 E0.08048
G1 X76.018 Y94.529 E9.19508
G1 X76.018 Y93.645 E0.08048
G1 X148.355 Y165.982 E9.30889
G1 X149.239 Y165.982 E0.08048
G1 X76.018 Y92.761 E9.42270
G1 X76.018 Y91.876 E0.08048
G1 X150.124 Y165.982 E9.53651
G1 X151.008 Y165.982 E0.08048
G1 X76.018 Y90.992 E9.65032
G1 X76.018 Y90.108 E0.08048
G1 X151.892 Y165.982 E9.76413
G1 X152.777 Y165.982 E0.08048
G1 X76.018 Y89.223 E9.87794
G1 X76.018 Y88.339 E0.08048
G1 X153.661 Y165.982 E9.99175
G1 X154.546 Y165.982 E0.08048
G1 X76.018 Y87.454 E10.10556
G1 X76.018 Y86.570 E0.08048
G1 X155.430 Y165.982 E10.21937
G1 X156.314 Y165.982 E0.08048
G1 X76.018 Y85.686 E10.33318
G1 X76.018 Y84.801 E0.08048
G1 X157.199 Y165.982 E10.44699
G1 X158.083 Y165.982 E0.08048
G1 X76.018 Y83.917 E10.56080
G1 X76.018 Y83.032 E0.08048
G1 X158.968 Y165.982 E10.67460
G1 X159.852 Y165.982 E0.08048
G1 X76.018 Y82.148 E10.78841
G1 X76.018 Y81.264 E0.08048
G1 X160.736 Y165.982 E10.90222
G1 X161.621 Y165.982 E0.08048
G1 X76.018 Y80.379 E11.01603
G1 X76.018 Y79.495 E0.08048
G1 X162.505 Y165.982 E11.12984
G1 X163.389 Y165.982 E0.08048
G1 X76.018 Y78.611 E11.24365
G1 X76.018 Y77.726 E0.08048
G1 X164.274 Y165.982 E11.35746
G1 X165.158 Y165.982 E0.08048
G1 X76.018 Y76.842 E11.47127
G1 X76.018 Y75.957 E0.08048
G1 X166.043 Y165.982 E11.58508
G1 X166.927 Y165.982 E0.08048
G1 X76.018 Y75.073 E11.69889
G1 X76.018 Y74.189 E0.08048
G1 X167.811 Y165.982 E11.81270
G1 X168.696 Y165.982 E0.08048
G1 X76.018 Y73.304 E11.92651
G1 X76.018 Y72.420 E0.08048
G1 X169.580 Y165.982 E12.04032
G1 X170.464 Y165.982 E0.08048
G1 X76.018 Y71.536 E12.15413
G1 X76.018 Y70.651 E0.08048
G1 X171.349 Y165.982 E12.26794
G1 X172.233 Y165.982 E0.08048
G1 X76.018 Y69.767 E12.38175
G1 X76.018 Y68.882 E0.08048
G1 X173.399 Y166.263 E12.53174
G1 F6240.000
G1 X171.718 Y164.582 E-0.76000
G1 E-0.04000 F2100.00000
G1 Z0.550 F7800.000
G1 X178.263 Y154.324
G1 Z0.350
G1 E0.80000 F2100.00000
G1 F1800.000
G1 X88.211 Y64.272 E11.58866
G1 X88.211 Y64.409 E0.01247
G1 X89.232 Y66.177 E0.18579
G1 X177.982 Y154.927 E11.42110
G1 X177.982 Y155.811 E0.08048
G1 X90.440 Y68.269 E11.26563
G1 X90.919 Y69.100 E0.08728
G1 X90.724 Y69.438 E0.03553
G1 X177.982 Y156.696 E11.22904
G1 X177.982 Y157.580 E0.08048
G1 X90.400 Y69.999 E11.27070
G1 X90.077 Y70.559 E0.05891
G1 X177.982 Y158.464 E11.31235
G1 X177.982 Y159.349 E0.08048
G1 X89.753 Y71.120 E11.35401
G1 X89.429 Y71.681 E0.05891
G1 X177.982 Y160.233 E11.39567
G1 X177.982 Y161.117 E0.08048
G1 X89.106 Y72.241 E11.43732
G1 X88.782 Y72.802 E0.05891
G1 X177.982 Y162.002 E11.47898
G1 X177.982 Y162.886 E0.08048
G1 X88.458 Y73.363 E11.52064
G1 X88.135 Y73.923 E0.05891
G1 X177.982 Y163.771 E11.56230
G1 X177.982 Y164.655 E0.08048
G1 X87.726 Y74.400 E11.61485
G1 X86.842 Y74.400 E0.08048
G1 X177.982 Y165.539 E11.72866
G1 X177.982 Y165.982 E0.04024
G1 X177.539 Y165.982 E0.04023
G1 X85.957 Y74.400 E11.78557
G1 X85.073 Y74.400 E0.08048
G1 X176.655 Y165.982 E11.78557
G1 X175.771 Y165.982 E0.08048
G1 X84.189 Y74.400 E11.78557
G1 X83.304 Y74.400 E0.08048
G1 X174.886 Y165.982 E11.78557
G1 X174.002 Y165.982 E0.08048
G1 X82.420 Y74.400 E11.78557
G1 X81.740 Y74.400 E0.06184
G1 X80.812 Y72.792 E0.16894
G1 X76.018 Y67.998 E0.61688
G1 X76.018 Y67.114 E0.08048
G1 X79.604 Y70.699 E0.46142
G1 X78.681 Y69.100 E0.16803
G1 X78.757 Y68.968 E0.01389
G1 X76.018 Y66.229 E0.35242
G1 X76.018 Y65.345 E0.08048
G1 X79.081 Y68.407 E0.39408
G1 X79.404 Y67.846 E0.05891
G1 X76.018 Y64.461 E0.43573
G1 X76.018 Y64.018 E0.04023
G1 X76.461 Y64.018 E0.04024
G1 X79.728 Y67.286 E0.42048
G1 X80.052 Y66.725 E0.05891
G1 X77.345 Y64.018 E0.34832
G1 X78.229 Y64.018 E0.08048
G1 X80.375 Y66.164 E0.27617
G1 X80.699 Y65.604 E0.05891
G1 X79.114 Y64.018 E0.20402
G1 X79.998 Y64.018 E0.08048
G1 X81.023 Y65.043 E0.13187
G1 X81.347 Y64.482 E0.05891
G1 X80.601 Y63.737 E0.09590
G1 F6240.000
G1 X81.347 Y64.482 E-0.33694
G1 X81.023 Y65.043 E-0.20698
G1 X80.545 Y64.565 E-0.21607
G1 E-0.04000 F2100.00000
G1 Z0.550 F7800.000
G1 X81.858 Y63.909
G1 Z0.350
G1 E0.80000 F2100.00000
G1 F1800.000
G1 X87.742 Y63.909 E0.08090
G1 F6240.000
G1 X85.365 Y63.909 E-0.76000
G1 E-0.04000 F2100.00000
G1 Z0.550 F7800.000
G1 X166.162 Y64.398
G1 Z0.350
G1 E0.80000 F2100.00000
G1 F1800.000
