; generated by PrusaSlicer 2.2.0+win64 on 2020-12-22 at 20:34:52 UTC

; 

; external perimeters extrusion width = 0.45mm
; perimeters extrusion width = 0.45mm
; infill extrusion width = 0.45mm
; solid infill extrusion width = 0.45mm
; top infill extrusion width = 0.40mm
; first layer extrusion width = 0.38mm

M107
G90 ; use absolute coordinates
M83 ; extruder relative mode
M104 S0 ; turn off temperature
M104 S200 ; set extruder temp
M140 S70 ; set bed temp
M190 S70 ; wait for bed temp
G28 ; home all axes
G1 Z5 F5000 ; lift nozzle
G21 ; set units to millimeters
G90 ; use absolute coordinates
M82 ; use absolute distances for extrusion
G92 E0
; Filament gcode
;LAYER:0
G1 Z0.300 F7800.000
G1 E-7.00000 F2400.00000
G92 E0
G1 X86.639 Y86.659 F7800.000
G1 E7.00000 F2400.00000
G1 F1800.000
G1 X88.491 Y85.010 E7.09608
G1 X90.148 Y83.814 E7.17523
G1 X92.803 Y82.276 E7.29412
G1 X95.132 Y81.204 E7.39343
G1 X97.532 Y80.315 E7.49260
G1 X100.497 Y79.520 E7.61153
G1 X102.519 Y79.191 E7.69087
G1 X104.995 Y79.047 E7.78699
G1 X107.462 Y79.191 E7.88273
G1 X109.479 Y79.517 E7.96187
G1 X112.444 Y80.306 E8.08076
G1 X114.849 Y81.196 E8.18007
G1 X117.175 Y82.263 E8.27924
G1 X119.834 Y83.798 E8.39817
G1 X121.489 Y84.989 E8.47717
G1 X123.342 Y86.638 E8.57328
G1 X124.991 Y88.490 E8.66937
G1 X126.187 Y90.147 E8.74851
G1 X127.725 Y92.802 E8.86740
G1 X128.797 Y95.131 E8.96671
G1 X129.686 Y97.531 E9.06588
G1 X130.481 Y100.496 E9.18482
G1 X130.810 Y102.518 E9.26415
G1 X130.954 Y104.986 E9.35996
G1 X130.810 Y107.461 E9.45601
G1 X130.484 Y109.478 E9.53515
G1 X129.695 Y112.443 E9.65404
G1 X128.805 Y114.848 E9.75335
G1 X127.738 Y117.174 E9.85252
G1 X126.203 Y119.833 E9.97145
G1 X125.006 Y121.494 E10.05079
G1 X123.363 Y123.341 E10.14656
G1 X121.511 Y124.990 E10.24265
G1 X119.854 Y126.186 E10.32179
G1 X117.199 Y127.724 E10.44068
G1 X114.870 Y128.796 E10.53999
G1 X112.470 Y129.685 E10.63916
G1 X109.505 Y130.480 E10.75810
G1 X107.492 Y130.808 E10.83710
G1 X105.015 Y130.953 E10.93321
G1 X102.540 Y130.809 E11.02929
G1 X100.523 Y130.483 E11.10843
G1 X97.558 Y129.694 E11.22732
G1 X95.153 Y128.804 E11.32664
G1 X92.827 Y127.737 E11.42580
G1 X90.168 Y126.202 E11.54474
G1 X88.507 Y125.005 E11.62408
G1 X86.660 Y123.362 E11.71985
G1 X85.011 Y121.510 E11.81593
G1 X83.815 Y119.853 E11.89508
G1 X82.277 Y117.198 E12.01396
G1 X81.206 Y114.869 E12.11327
G1 X80.316 Y112.469 E12.21245
G1 X79.521 Y109.504 E12.33138
G1 X79.193 Y107.491 E12.41038
G1 X79.048 Y105.015 E12.50649
G1 X79.192 Y102.539 E12.60257
G1 X79.518 Y100.522 E12.68172
G1 X80.307 Y97.557 E12.80061
G1 X81.197 Y95.152 E12.89992
G1 X82.264 Y92.826 E12.99909
G1 X83.799 Y90.167 E13.11802
G1 X84.996 Y88.506 E13.19736
G1 X86.599 Y86.704 E13.29081
G1 X86.831 Y86.910 F7800.000
G1 F1800.000
G1 X88.688 Y85.250 E13.38730
G1 X90.315 Y84.076 E13.46504
G1 X92.947 Y82.551 E13.58290
G1 X95.251 Y81.491 E13.68113
G1 X97.622 Y80.612 E13.77910
G1 X100.564 Y79.823 E13.89712
G1 X102.551 Y79.500 E13.97512
G1 X104.998 Y79.358 E14.07006
G1 X107.431 Y79.500 E14.16449
G1 X109.421 Y79.822 E14.24257
G1 X112.360 Y80.605 E14.36043
G1 X114.730 Y81.483 E14.45833
G1 X117.028 Y82.537 E14.55630
G1 X119.667 Y84.060 E14.67432
G1 X121.300 Y85.237 E14.75231
G1 X123.125 Y86.860 E14.84691
G1 X124.751 Y88.687 E14.94169
G1 X125.925 Y90.314 E15.01943
G1 X127.450 Y92.946 E15.13728
G1 X128.510 Y95.250 E15.23552
G1 X129.389 Y97.621 E15.33349
G1 X130.178 Y100.563 E15.45151
G1 X130.501 Y102.550 E15.52951
G1 X130.643 Y104.988 E15.62410
G1 X130.501 Y107.430 E15.71888
G1 X130.179 Y109.420 E15.79696
G1 X129.396 Y112.359 E15.91481
G1 X128.518 Y114.729 E16.01271
G1 X127.464 Y117.027 E16.11068
G1 X125.941 Y119.666 E16.22870
G1 X124.764 Y121.299 E16.30670
G1 X123.142 Y123.123 E16.40129
G1 X121.314 Y124.750 E16.49607
G1 X119.687 Y125.924 E16.57382
G1 X117.055 Y127.449 E16.69167
G1 X114.751 Y128.509 E16.78991
G1 X112.380 Y129.388 E16.88788
G1 X109.438 Y130.177 E17.00590
G1 X107.451 Y130.500 E17.08389
G1 X105.013 Y130.642 E17.17850
G1 X102.571 Y130.500 E17.27327
G1 X100.581 Y130.178 E17.35135
G1 X97.642 Y129.395 E17.46920
G1 X95.272 Y128.517 E17.56710
G1 X92.974 Y127.463 E17.66507
G1 X90.343 Y125.945 E17.78276
G1 X88.709 Y124.769 E17.86075
G1 X86.884 Y123.147 E17.95535
G1 X85.257 Y121.320 E18.05012
G1 X84.077 Y119.686 E18.12820
G1 X82.552 Y117.054 E18.24606
G1 X81.492 Y114.750 E18.34429
G1 X80.613 Y112.379 E18.44227
G1 X79.824 Y109.437 E18.56029
G1 X79.501 Y107.450 E18.63828
G1 X79.359 Y105.012 E18.73288
G1 X79.501 Y102.570 E18.82765
G1 X79.823 Y100.580 E18.90573
G1 X80.606 Y97.641 E19.02359
G1 X81.484 Y95.271 E19.12149
G1 X82.538 Y92.973 E19.21946
G1 X84.061 Y90.334 E19.33748
G1 X85.238 Y88.701 E19.41547
G1 X86.791 Y86.955 E19.50602
G1 E12.50602 F2400.00000
G92 E0
G1 X115.253 Y112.808 F7800.000
G1 E7.00000 F2400.00000
G1 F1800.000
G1 X115.029 Y113.094 E7.01406
G1 X114.887 Y113.319 E7.02435
G1 X114.496 Y113.792 E7.04814
G1 X114.161 Y114.146 E7.06701
G1 X113.809 Y114.479 E7.08581
G1 X113.331 Y114.874 E7.10983
G1 X113.104 Y115.020 E7.12029
G1 X112.818 Y115.243 E7.13435
G1 X112.580 Y115.374 E7.14486
G1 X112.278 Y115.587 E7.15918
G1 X111.164 Y116.200 E7.20845
G1 X110.656 Y116.445 E7.23028
G1 X109.887 Y116.779 E7.26278
G1 X109.169 Y117.063 E7.29270
G1 X108.570 Y117.275 E7.31728
G1 X107.350 Y117.631 E7.36654
G1 X106.986 Y117.694 E7.38087
G1 X106.729 Y117.770 E7.39124
G1 X106.369 Y117.814 E7.40530
G1 X106.110 Y117.873 E7.41559
G1 X105.498 Y117.931 E7.43938
G1 X105.011 Y117.944 E7.45825
G1 X104.526 Y117.931 E7.47705
G1 X103.909 Y117.873 E7.50107
G1 X103.646 Y117.815 E7.51153
G1 X103.285 Y117.770 E7.52559
G1 X103.025 Y117.695 E7.53610
G1 X102.660 Y117.632 E7.55042
G1 X101.439 Y117.277 E7.59969
G1 X100.907 Y117.092 E7.62152
G1 X100.127 Y116.784 E7.65401
G1 X99.418 Y116.477 E7.68393
G1 X98.845 Y116.203 E7.70852
G1 X97.731 Y115.593 E7.75777
G1 X97.428 Y115.380 E7.77211
G1 X97.193 Y115.252 E7.78248
G1 X96.907 Y115.028 E7.79653
G1 X96.682 Y114.886 E7.80683
G1 X96.209 Y114.495 E7.83062
G1 X95.855 Y114.160 E7.84949
G1 X95.522 Y113.808 E7.86828
G1 X95.127 Y113.330 E7.89231
G1 X94.981 Y113.103 E7.90276
G1 X94.758 Y112.817 E7.91683
G1 X94.627 Y112.579 E7.92734
G1 X94.414 Y112.277 E7.94166
G1 X93.801 Y111.163 E7.99092
G1 X93.556 Y110.655 E8.01276
G1 X93.222 Y109.886 E8.04525
G1 X92.938 Y109.168 E8.07517
G1 X92.726 Y108.569 E8.09976
G1 X92.370 Y107.349 E8.14901
G1 X92.307 Y106.985 E8.16334
G1 X92.231 Y106.728 E8.17371
G1 X92.187 Y106.368 E8.18777
G1 X92.128 Y106.108 E8.19807
G1 X92.070 Y105.497 E8.22185
G1 X92.057 Y105.010 E8.24073
G1 X92.070 Y104.525 E8.25952
G1 X92.128 Y103.908 E8.28354
G1 X92.186 Y103.645 E8.29400
G1 X92.231 Y103.284 E8.30807
G1 X92.306 Y103.024 E8.31858
G1 X92.369 Y102.659 E8.33289
G1 X92.724 Y101.438 E8.38216
G1 X92.909 Y100.906 E8.40400
G1 X93.217 Y100.126 E8.43649
G1 X93.524 Y99.417 E8.46641
G1 X93.798 Y98.844 E8.49100
G1 X94.408 Y97.730 E8.54025
G1 X94.621 Y97.427 E8.55458
G1 X94.749 Y97.192 E8.56495
G1 X94.973 Y96.906 E8.57901
G1 X95.115 Y96.681 E8.58931
G1 X95.506 Y96.208 E8.61309
G1 X95.841 Y95.854 E8.63196
G1 X96.193 Y95.521 E8.65076
G1 X96.671 Y95.126 E8.67478
G1 X96.898 Y94.980 E8.68524
G1 X97.184 Y94.757 E8.69931
G1 X97.422 Y94.626 E8.70981
G1 X97.724 Y94.413 E8.72413
G1 X98.838 Y93.800 E8.77340
G1 X99.345 Y93.555 E8.79523
G1 X100.177 Y93.195 E8.83033
G1 X101.433 Y92.725 E8.88230
G1 X102.652 Y92.369 E8.93148
G1 X103.016 Y92.306 E8.94581
G1 X103.273 Y92.230 E8.95618
G1 X103.633 Y92.186 E8.97024
G1 X103.893 Y92.127 E8.98054
G1 X104.503 Y92.069 E9.00430
G1 X105.475 Y92.069 E9.04197
G1 X106.093 Y92.127 E9.06600
G1 X106.356 Y92.185 E9.07646
G1 X106.717 Y92.230 E9.09052
G1 X106.977 Y92.305 E9.10103
G1 X107.342 Y92.368 E9.11535
G1 X108.563 Y92.723 E9.16462
G1 X109.095 Y92.908 E9.18645
G1 X109.937 Y93.242 E9.22154
G1 X111.158 Y93.797 E9.27351
G1 X112.271 Y94.407 E9.32269
G1 X112.574 Y94.620 E9.33703
G1 X112.809 Y94.748 E9.34740
G1 X113.095 Y94.972 E9.36146
G1 X113.320 Y95.114 E9.37175
G1 X113.793 Y95.505 E9.39554
G1 X114.147 Y95.840 E9.41441
G1 X114.480 Y96.192 E9.43321
G1 X114.875 Y96.670 E9.45723
G1 X115.021 Y96.897 E9.46769
G1 X115.244 Y97.183 E9.48175
G1 X115.375 Y97.421 E9.49226
G1 X115.588 Y97.723 E9.50658
G1 X116.201 Y98.837 E9.55584
G1 X116.446 Y99.345 E9.57768
G1 X116.780 Y100.114 E9.61017
G1 X117.064 Y100.832 E9.64009
G1 X117.276 Y101.431 E9.66468
G1 X117.632 Y102.651 E9.71393
G1 X117.695 Y103.015 E9.72826
G1 X117.771 Y103.272 E9.73863
G1 X117.815 Y103.632 E9.75269
G1 X117.874 Y103.892 E9.76299
G1 X117.932 Y104.503 E9.78677
G1 X117.945 Y104.989 E9.80561
G1 X117.932 Y105.475 E9.82445
G1 X117.874 Y106.092 E9.84846
G1 X117.816 Y106.355 E9.85892
G1 X117.771 Y106.716 E9.87299
G1 X117.696 Y106.976 E9.88349
G1 X117.633 Y107.341 E9.89781
G1 X117.278 Y108.562 E9.94708
G1 X117.093 Y109.094 E9.96892
G1 X116.785 Y109.874 E10.00141
G1 X116.478 Y110.583 E10.03133
G1 X116.204 Y111.156 E10.05592
G1 X115.594 Y112.270 E10.10517
G1 X115.381 Y112.573 E10.11950
G1 X115.281 Y112.755 E10.12755
G1 E3.12755 F2400.00000
G92 E0
G1 X97.043 Y115.016 F7800.000
G1 E7.00000 F2400.00000
G1 F1800.000
G1 X95.696 Y113.654 E7.07500
G1 X95.315 Y113.193 E7.09840
G1 X95.172 Y112.968 E7.10884
G1 X94.953 Y112.688 E7.12275
G1 X94.825 Y112.455 E7.13314
G1 X94.597 Y112.126 E7.14881
G1 X97.879 Y115.408 E7.33048
G1 X98.860 Y115.946 E7.37428
G1 X94.054 Y111.140 E7.64032
G1 X93.653 Y110.295 E7.67693
G1 X99.706 Y116.348 E8.01199
G1 X100.472 Y116.670 E8.04450
G1 X93.331 Y109.529 E8.43975
G1 X93.060 Y108.814 E8.46970
G1 X101.190 Y116.944 E8.91973
G1 X101.841 Y117.151 E8.94648
G1 X92.849 Y108.160 E9.44421
G1 X92.666 Y107.533 E9.46977
G1 X102.466 Y117.333 E10.01225
G1 X102.713 Y117.404 E10.02230
G1 X103.038 Y117.461 E10.03522
G1 X92.539 Y106.962 E10.61638
G1 X92.460 Y106.680 E10.62783
G1 X92.426 Y106.405 E10.63870
G1 X103.595 Y117.574 E11.25693
G1 X104.124 Y117.659 E11.27792
G1 X92.340 Y105.875 E11.93020
G1 X92.300 Y105.391 E11.94920
G1 X104.609 Y117.700 E12.63055
G1 X105.062 Y117.710 E12.64830
G1 X92.292 Y104.939 E13.35520
G1 X92.305 Y104.509 E13.37205
G1 X105.494 Y117.697 E14.10209
G1 X105.899 Y117.659 E14.11801
G1 X92.344 Y104.104 E14.86834
G1 X92.408 Y103.724 E14.88343
G1 X106.280 Y117.596 E15.65130
G1 X106.670 Y117.543 E15.66673
G1 X92.460 Y103.332 E16.45334
G1 X92.550 Y102.979 E16.46761
G1 X107.023 Y117.451 E17.26874
G1 X107.392 Y117.376 E17.28347
G1 X92.626 Y102.611 E18.10081
G1 X92.726 Y102.267 E18.11483
G1 X107.735 Y117.276 E18.94565
G1 X108.079 Y117.176 E18.95966
G1 X92.826 Y101.923 E19.80397
G1 X92.925 Y101.579 E19.81799
G1 X108.422 Y117.075 E20.67579
G1 X108.753 Y116.963 E20.68949
G1 X93.037 Y101.246 E21.55946
G1 X93.154 Y100.920 E21.57305
G1 X109.081 Y116.847 E22.45471
G1 X109.400 Y116.721 E22.46809
G1 X93.280 Y100.601 E23.36040
G1 X93.405 Y100.283 E23.37379
G1 X109.718 Y116.596 E24.27674
G1 X110.029 Y116.463 E24.28999
G1 X93.538 Y99.972 E25.20287
G1 X93.672 Y99.662 E25.21608
G1 X110.339 Y116.329 E26.13868
G1 X110.645 Y116.192 E26.15183
G1 X93.811 Y99.357 E27.08370
G1 X93.954 Y99.057 E27.09673
G1 X110.945 Y116.047 E28.03721
G1 X111.236 Y115.895 E28.05008
G1 X94.106 Y98.765 E28.99824
G1 X94.264 Y98.479 E29.01104
G1 X111.522 Y115.737 E29.96636
G1 X111.808 Y115.580 E29.97915
G1 X94.421 Y98.192 E30.94163
G1 X94.578 Y97.905 E30.95442
G1 X112.095 Y115.422 E31.92405
G1 X112.360 Y115.244 E31.93657
G1 X94.756 Y97.640 E32.91103
G1 X94.922 Y97.362 E32.92370
G1 X112.637 Y115.077 E33.90428
G1 X112.893 Y114.889 E33.91671
G1 X95.111 Y97.107 E34.90100
G1 X95.289 Y96.842 E34.91352
G1 X113.157 Y114.709 E35.90257
G1 X113.404 Y114.512 E35.91493
G1 X95.487 Y96.596 E36.90667
G1 X95.689 Y96.353 E36.91900
G1 X113.647 Y114.311 E37.91305
G1 X113.875 Y114.096 E37.92534
G1 X95.905 Y96.126 E38.92008
G1 X96.005 Y96.019 E38.92582
G1 X96.127 Y95.904 E38.93236
G1 X114.097 Y113.874 E39.92710
G1 X114.313 Y113.647 E39.93939
G1 X96.355 Y95.689 E40.93343
G1 X96.598 Y95.488 E40.94577
G1 X114.515 Y113.404 E41.93751
G1 X114.713 Y113.158 E41.94986
G1 X96.845 Y95.291 E42.93892
G1 X97.109 Y95.111 E42.95142
G1 X114.891 Y112.893 E43.93571
G1 X115.080 Y112.638 E43.94813
G1 X97.365 Y94.923 E44.92871
G1 X97.642 Y94.756 E44.94136
G1 X115.246 Y112.360 E45.91582
G1 X115.424 Y112.095 E45.92833
G1 X97.907 Y94.578 E46.89796
G1 X98.194 Y94.420 E46.91075
G1 X115.581 Y111.808 E47.87323
G1 X115.738 Y111.521 E47.88602
G1 X98.480 Y94.263 E48.84135
G1 X98.766 Y94.105 E48.85414
G1 X115.896 Y111.235 E49.80231
G1 X116.048 Y110.943 E49.81518
G1 X99.057 Y93.953 E50.75566
G1 X99.357 Y93.808 E50.76867
G1 X116.191 Y110.643 E51.70054
G1 X116.330 Y110.338 E51.71366
G1 X99.663 Y93.671 E52.63624
G1 X99.973 Y93.537 E52.64945
G1 X116.464 Y110.028 E53.56230
G1 X116.597 Y109.717 E53.57555
G1 X100.284 Y93.404 E54.47852
G1 X100.607 Y93.283 E54.49202
G1 X116.722 Y109.399 E55.38408
G1 X116.848 Y109.081 E55.39746
G1 X100.930 Y93.162 E56.27861
G1 X101.253 Y93.041 E56.29210
G1 X116.965 Y108.754 E57.16185
G1 X117.077 Y108.421 E57.17556
G1 X101.580 Y92.925 E58.03337
G1 X101.923 Y92.824 E58.04737
G1 X117.176 Y108.077 E58.89169
G1 X117.276 Y107.733 E58.90571
G1 X102.267 Y92.724 E59.73654
G1 X102.610 Y92.624 E59.75054
G1 X117.376 Y107.389 E60.56788
G1 X117.452 Y107.021 E60.58259
G1 X102.979 Y92.549 E61.38372
G1 X103.332 Y92.457 E61.39798
G1 X117.542 Y106.668 E62.18459
G1 X117.594 Y106.276 E62.20006
G1 X103.722 Y92.404 E62.96793
G1 X104.103 Y92.341 E62.98304
G1 X117.658 Y105.896 E63.73337
G1 X117.697 Y105.491 E63.74931
G1 X104.508 Y92.303 E64.47934
G1 X104.951 Y92.302 E64.49669
G1 X117.710 Y105.060 E65.20293
G1 X117.702 Y104.609 E65.22062
G1 X105.395 Y92.302 E65.90185
G1 X105.878 Y92.341 E65.92082
G1 X117.662 Y104.125 E66.57311
G1 X117.643 Y103.928 E66.58084
G1 X117.576 Y103.595 E66.59414
G1 X106.407 Y92.426 E67.21238
G1 X106.670 Y92.459 E67.22274
G1 X106.964 Y92.539 E67.23466
G1 X117.463 Y103.038 E67.81583
G1 X117.405 Y102.704 E67.82912
G1 X117.336 Y102.467 E67.83875
G1 X107.536 Y92.667 E68.38124
G1 X108.161 Y92.849 E68.40672
G1 X117.153 Y101.840 E68.90445
G1 X116.942 Y101.186 E68.93135
G1 X108.812 Y93.056 E69.38139
G1 X109.531 Y93.331 E69.41154
G1 X116.671 Y100.471 E69.80672
G1 X116.349 Y99.705 E69.83923
G1 X110.312 Y93.668 E70.17339
G1 X111.141 Y94.054 E70.20919
G1 X115.948 Y98.860 E70.47524
G1 X115.405 Y97.874 E70.51931
G1 X112.123 Y94.592 E70.70099
G1 X112.451 Y94.819 E70.71659
G1 X112.681 Y94.944 E70.72684
G1 X112.961 Y95.162 E70.74074
G1 X113.183 Y95.303 E70.75102
G1 X113.639 Y95.679 E70.77417
G1 X115.010 Y97.035 E70.84964
;LAYER:1
G1 Z0.500 F7800.000
G1 E63.84964 F2400.00000
G92 E0
G1 X116.138 Y111.554 F7800.000
G1 E7.00000 F2400.00000
G1 F1500.000
G1 X115.506 Y112.882 E7.04980
G1 X115.274 Y113.302 E7.06604
G1 X115.019 Y113.703 E7.08210
G1 X114.739 Y114.077 E7.09791
G1 X114.443 Y114.405 E7.11288
G1 X114.219 Y114.613 E7.12324
G1 X113.847 Y114.906 E7.13925
G1 X113.447 Y115.172 E7.15552
G1 X113.027 Y115.417 E7.17197
G1 X111.848 Y116.001 E7.21651
G1 X110.219 Y116.709 E7.27664
G1 X108.242 Y117.510 E7.34883
G1 X106.856 Y118.002 E7.39863
G1 X106.394 Y118.134 E7.41487
G1 X105.931 Y118.238 E7.43093
G1 X105.469 Y118.304 E7.44674
G1 X105.027 Y118.326 E7.46171
G1 X104.722 Y118.315 E7.47207
G1 X104.252 Y118.260 E7.48808
G1 X103.781 Y118.165 E7.50435
G1 X103.311 Y118.041 E7.52081
G1 X102.064 Y117.620 E7.56534
G1 X100.411 Y116.969 E7.62547
G1 X98.447 Y116.137 E7.69766
G1 X97.119 Y115.505 E7.74746
G1 X96.699 Y115.273 E7.76370
G1 X96.298 Y115.018 E7.77976
G1 X95.924 Y114.738 E7.79558
G1 X95.596 Y114.442 E7.81055
G1 X95.388 Y114.218 E7.82090
G1 X95.095 Y113.846 E7.83691
G1 X94.829 Y113.446 E7.85318
G1 X94.584 Y113.026 E7.86964
G1 X94.000 Y111.847 E7.91417
G1 X93.292 Y110.218 E7.97431
G1 X92.491 Y108.241 E8.04650
G1 X91.999 Y106.855 E8.09630
G1 X91.867 Y106.393 E8.11253
G1 X91.763 Y105.930 E8.12859
G1 X91.697 Y105.468 E8.14441
G1 X91.675 Y105.026 E8.15938
G1 X91.686 Y104.721 E8.16973
G1 X91.741 Y104.251 E8.18574
G1 X91.836 Y103.779 E8.20201
G1 X91.960 Y103.310 E8.21847
G1 X92.381 Y102.063 E8.26301
G1 X93.032 Y100.410 E8.32314
G1 X93.864 Y98.446 E8.39533
G1 X94.496 Y97.118 E8.44513
G1 X94.728 Y96.698 E8.46137
G1 X94.983 Y96.297 E8.47743
G1 X95.263 Y95.923 E8.49324
