; generated by PrusaSlicer 2.2.0+win64 on 2020-12-23 at 23:32:54 UTC

; 

; external perimeters extrusion width = 0.45mm
; perimeters extrusion width = 0.45mm
; infill extrusion width = 0.45mm
; solid infill extrusion width = 0.45mm
; top infill extrusion width = 0.40mm
; first layer extrusion width = 0.70mm

M107
G90 ; use absolute coordinates
M83 ; extruder relative mode
M104 S0 ; turn off temperature
M104 S225 ; set extruder temp
M140 S70 ; set bed temp
M190 S70 ; wait for bed temp
G28 ; home all axes
G1 Z5 F5000 ; lift nozzle
G21 ; set units to millimeters
G90 ; use absolute coordinates
M82 ; use absolute distances for extrusion
G92 E0
; Filament gcode
;LAYER:0
G1 Z0.350 F7800.000
G1 E-7.00000 F2400.00000
G92 E0
G1 X87.854 Y75.916 F7800.000
G1 E7.00000 F2400.00000
G1 F1200.000
G1 X89.012 Y74.826 E7.14465
G1 X90.293 Y73.882 E7.28930
G1 X91.677 Y73.098 E7.43394
G1 X93.146 Y72.486 E7.57859
G1 X95.038 Y71.981 E7.75669
G1 X96.993 Y71.760 E7.93560
G1 X112.509 Y71.750 E9.34645
G1 X114.729 Y71.939 E9.54901
G1 X116.894 Y72.500 E9.75237
G1 X118.926 Y73.413 E9.95493
G1 X120.783 Y74.658 E10.15829
G1 X122.398 Y76.192 E10.36085
G1 X123.739 Y77.983 E10.56422
G1 X124.759 Y79.973 E10.76758
G1 X125.428 Y82.098 E10.97014
G1 X125.663 Y83.489 E11.09846
G1 X125.749 Y84.898 E11.22678
G1 X125.750 Y125.045 E14.87735
G1 X125.622 Y126.838 E15.04077
G1 X125.252 Y128.596 E15.20418
G1 X124.695 Y130.182 E15.35699
G1 X123.945 Y131.676 E15.50899
G1 X123.008 Y133.071 E15.66180
G1 X121.908 Y134.330 E15.81379
G1 X120.659 Y135.440 E15.96578
G1 X119.279 Y136.384 E16.11777
G1 X117.792 Y137.147 E16.26977
G1 X116.212 Y137.719 E16.42258
G1 X114.385 Y138.115 E16.59252
G1 X112.521 Y138.250 E16.76246
G1 X97.149 Y138.245 E18.16024
G1 X95.511 Y138.100 E18.30978
G1 X93.904 Y137.752 E18.45933
G1 X92.137 Y137.116 E18.63008
G1 X90.478 Y136.236 E18.80084
G1 X88.960 Y135.130 E18.97160
G1 X87.613 Y133.821 E19.14236
G1 X86.466 Y132.335 E19.31312
G1 X85.540 Y130.701 E19.48388
G1 X84.854 Y128.953 E19.65463
G1 X84.422 Y127.125 E19.82539
G1 X84.250 Y125.057 E20.01409
G1 X84.251 Y84.901 E23.66548
G1 X84.382 Y83.136 E23.82645
G1 X84.748 Y81.404 E23.98742
G1 X85.271 Y79.901 E24.13207
G1 X85.970 Y78.472 E24.27672
G1 X86.835 Y77.138 E24.42136
G1 X87.816 Y75.962 E24.56056
G1 X88.296 Y76.367 F7800.000
G1 F1200.000
G1 X89.479 Y75.251 E24.70848
G1 X90.714 Y74.354 E24.84728
G1 X92.049 Y73.613 E24.98608
G1 X93.463 Y73.038 E25.12488
G1 X95.237 Y72.579 E25.29156
G1 X97.060 Y72.383 E25.45823
G1 X112.509 Y72.375 E26.86299
G1 X114.640 Y72.558 E27.05752
G1 X116.710 Y73.098 E27.25204
G1 X118.659 Y73.980 E27.44657
G1 X120.432 Y75.178 E27.64109
G1 X121.976 Y76.658 E27.83562
G1 X123.249 Y78.378 E28.03015
G1 X124.212 Y80.288 E28.22467
G1 X124.840 Y82.333 E28.41920
G1 X125.050 Y83.623 E28.53808
G1 X125.125 Y84.920 E28.65616
G1 X125.125 Y125.053 E32.30543
G1 X124.999 Y126.776 E32.46255
G1 X124.640 Y128.466 E32.61967
G1 X124.105 Y129.971 E32.76484
G1 X123.381 Y131.403 E32.91081
G1 X122.480 Y132.732 E33.05679
G1 X121.418 Y133.936 E33.20276
G1 X120.212 Y134.995 E33.34873
G1 X118.889 Y135.889 E33.49390
G1 X117.456 Y136.612 E33.63987
G1 X115.942 Y137.147 E33.78585
G1 X114.399 Y137.481 E33.92943
G1 X112.826 Y137.621 E34.07301
G1 X97.500 Y137.625 E35.46660
G1 X95.750 Y137.503 E35.62611
G1 X94.034 Y137.140 E35.78562
G1 X92.344 Y136.524 E35.94911
G1 X90.760 Y135.675 E36.11260
G1 X89.318 Y134.615 E36.27529
G1 X88.035 Y133.355 E36.43879
G1 X86.949 Y131.933 E36.60148
G1 X86.071 Y130.364 E36.76497
G1 X85.428 Y128.695 E36.92767
G1 X85.025 Y126.942 E37.09116
G1 X84.875 Y125.045 E37.26420
G1 X84.875 Y84.903 E40.91427
G1 X85.004 Y83.198 E41.06980
G1 X85.360 Y81.534 E41.22453
G1 X85.867 Y80.094 E41.36333
G1 X86.540 Y78.734 E41.50134
G1 X87.376 Y77.457 E41.64014
G1 X88.257 Y76.413 E41.76430
G1 F6240.000
G1 X89.479 Y75.251 E41.14813
G1 X90.714 Y74.354 E40.59038
G1 X92.049 Y73.613 E40.03263
G1 X93.463 Y73.038 E39.47488
G1 X95.237 Y72.579 E38.80512
G1 X97.060 Y72.383 E38.13536
G1 X105.328 Y72.379 E35.11430
G1 E34.76430 F2400.00000
G92 E0
G1 X110.700 Y123.200 F7800.000
G1 E7.00000 F2400.00000
G1 F1200.000
G1 X99.300 Y123.200 E8.03664
G1 X99.300 Y86.800 E11.34651
G1 X110.700 Y86.800 E12.38315
G1 X110.700 Y123.140 E15.68757
G1 X111.325 Y123.825 F7800.000
G1 F1200.000
G1 X98.675 Y123.825 E16.83785
G1 X98.675 Y86.175 E20.26137
G1 X111.325 Y86.175 E21.41165
G1 X111.325 Y123.765 E24.82972
G1 X111.950 Y124.450 F7800.000
G1 F1200.000
G1 X98.050 Y124.450 E26.09364
G1 X98.050 Y85.550 E29.63080
G1 X111.950 Y85.550 E30.89472
G1 X111.950 Y124.390 E34.42642
G1 X111.583 Y124.291 F7800.000
G1 F6240.000
G1 X98.050 Y124.450 E29.34753
G1 X98.050 Y120.150 E27.77642
G1 E27.42642 F2400.00000
G92 E0
G1 X110.513 Y88.260 F7800.000
G1 E7.00000 F2400.00000
G1 F1200.000
G1 X109.521 Y87.268 E7.12843
G1 X108.631 Y87.268 E7.20995
G1 X110.232 Y88.869 E7.41725
G1 X110.232 Y89.759 E7.49877
G1 X107.741 Y87.268 E7.82136
G1 X106.851 Y87.268 E7.90288
G1 X110.232 Y90.649 E8.34076
G1 X110.232 Y91.539 E8.42228
G1 X105.961 Y87.268 E8.97545
G1 X105.071 Y87.268 E9.05697
G1 X110.232 Y92.429 E9.72543
G1 X110.232 Y93.319 E9.80695
G1 X104.181 Y87.268 E10.59070
G1 X103.290 Y87.268 E10.67222
G1 X110.232 Y94.210 E11.57126
G1 X110.232 Y95.100 E11.65278
G1 X102.400 Y87.268 E12.66711
G1 X101.510 Y87.268 E12.74864
G1 X110.232 Y95.990 E13.87825
G1 X110.232 Y96.880 E13.95978
G1 X100.620 Y87.268 E15.20469
G1 X99.768 Y87.268 E15.28269
G1 X99.768 Y87.307 E15.28621
G1 X110.232 Y97.770 E16.64143
G1 X110.232 Y98.660 E16.72295
G1 X99.768 Y88.197 E18.07817
G1 X99.768 Y89.087 E18.15969
G1 X110.232 Y99.550 E19.51491
G1 X110.232 Y100.440 E19.59643
G1 X99.768 Y89.977 E20.95165
G1 X99.768 Y90.867 E21.03317
G1 X110.232 Y101.330 E22.38839
G1 X110.232 Y102.221 E22.46991
G1 X99.768 Y91.757 E23.82513
G1 X99.768 Y92.648 E23.90665
G1 X110.232 Y103.111 E25.26187
G1 X110.232 Y104.001 E25.34339
G1 X99.768 Y93.538 E26.69861
G1 X99.768 Y94.428 E26.78013
G1 X110.232 Y104.891 E28.13535
G1 X110.232 Y105.781 E28.21687
G1 X99.768 Y95.318 E29.57209
G1 X99.768 Y96.208 E29.65361
G1 X110.232 Y106.671 E31.00883
G1 X110.232 Y107.561 E31.09035
G1 X99.768 Y97.098 E32.44557
G1 X99.768 Y97.988 E32.52709
G1 X110.232 Y108.451 E33.88231
G1 X110.232 Y109.341 E33.96383
G1 X99.768 Y98.878 E35.31905
G1 X99.768 Y99.768 E35.40057
G1 X110.232 Y110.232 E36.75578
G1 X110.232 Y111.122 E36.83731
G1 X99.768 Y100.659 E38.19253
G1 X99.768 Y101.549 E38.27405
G1 X110.232 Y112.012 E39.62926
G1 X110.232 Y112.902 E39.71079
G1 X99.768 Y102.439 E41.06600
G1 X99.768 Y103.329 E41.14753
G1 X110.232 Y113.792 E42.50274
G1 X110.232 Y114.682 E42.58427
G1 X99.768 Y104.219 E43.93948
G1 X99.768 Y105.109 E44.02101
G1 X110.232 Y115.572 E45.37622
G1 X110.232 Y116.462 E45.45775
G1 X99.768 Y105.999 E46.81296
G1 X99.768 Y106.889 E46.89449
G1 X110.232 Y117.353 E48.24970
G1 X110.232 Y118.243 E48.33123
G1 X99.768 Y107.779 E49.68644
G1 X99.768 Y108.670 E49.76797
G1 X110.232 Y119.133 E51.12318
G1 X110.232 Y120.023 E51.20471
G1 X99.768 Y109.560 E52.55992
G1 X99.768 Y110.450 E52.64145
G1 X110.232 Y120.913 E53.99666
G1 X110.232 Y121.803 E54.07819
G1 X99.768 Y111.340 E55.43340
G1 X99.768 Y112.230 E55.51493
G1 X110.232 Y122.693 E56.87014
G1 X110.232 Y122.732 E56.87366
G1 X109.380 Y122.732 E56.95167
G1 X99.768 Y113.120 E58.19656
G1 X99.768 Y114.010 E58.27809
G1 X108.490 Y122.732 E59.40769
G1 X107.600 Y122.732 E59.48922
G1 X99.768 Y114.900 E60.50353
G1 X99.768 Y115.791 E60.58505
G1 X106.709 Y122.732 E61.48408
G1 X105.819 Y122.732 E61.56560
G1 X99.768 Y116.681 E62.34934
G1 X99.768 Y117.571 E62.43086
G1 X104.929 Y122.732 E63.09931
G1 X104.039 Y122.732 E63.18083
G1 X99.768 Y118.461 E63.73399
G1 X99.768 Y119.351 E63.81551
G1 X103.149 Y122.732 E64.25338
G1 X102.259 Y122.732 E64.33490
G1 X99.768 Y120.241 E64.65747
G1 X99.768 Y121.131 E64.73900
G1 X101.369 Y122.732 E64.94628
G1 X100.479 Y122.732 E65.02780
G1 X99.487 Y121.740 E65.15622
;LAYER:1
G1 Z0.550 F7800.000
M104 S200 ; set temperature
G1 X111.461 Y123.961
G1 F3000.000
G1 X98.539 Y123.961 E65.59360
G1 X98.539 Y86.039 E66.87721
G1 X111.461 Y86.039 E67.31459
G1 X111.461 Y123.901 E68.59616
G1 X111.868 Y124.368 F7800.000
G1 F3000.000
G1 X98.132 Y124.368 E69.06111
G1 X98.132 Y85.632 E70.37227
G1 X111.868 Y85.632 E70.83721
G1 X111.868 Y124.308 E72.14634
G1 X112.275 Y124.775 F7800.000
G1 F1500.000
G1 X97.725 Y124.775 E72.63884
G1 X97.725 Y85.225 E73.97756
G1 X112.275 Y85.225 E74.47006
G1 X112.275 Y124.715 E75.80675
G1 X111.908 Y124.617 F7800.000
G1 X99.490 Y86.161
G1 F1200.000
G1 X98.844 Y86.807 E75.83788
G1 X98.844 Y87.387 E75.85764
G1 X99.887 Y86.344 E75.90788
G1 X100.466 Y86.344 E75.92764
G1 X98.844 Y87.966 E76.00582
G1 X98.844 Y88.546 E76.02559
G1 X101.046 Y86.344 E76.13172
G1 X101.626 Y86.344 E76.15148
G1 X98.844 Y89.126 E76.28555
G1 X98.844 Y89.706 E76.30531
G1 X102.206 Y86.344 E76.46734
G1 X102.785 Y86.344 E76.48710
G1 X98.844 Y90.285 E76.67707
G1 X98.844 Y90.865 E76.69683
G1 X103.365 Y86.344 E76.91474
G1 X103.945 Y86.344 E76.93450
G1 X98.844 Y91.445 E77.18036
G1 X98.844 Y92.025 E77.20012
G1 X104.525 Y86.344 E77.47392
G1 X105.104 Y86.344 E77.49368
G1 X98.844 Y92.604 E77.79543
G1 X98.844 Y93.184 E77.81519
G1 X105.684 Y86.344 E78.14489
G1 X106.264 Y86.344 E78.16465
G1 X98.844 Y93.764 E78.52229
G1 X98.844 Y94.343 E78.54205
G1 X106.843 Y86.344 E78.92764
G1 X107.423 Y86.344 E78.94740
G1 X98.844 Y94.923 E79.36093
G1 X98.844 Y95.503 E79.38069
G1 X108.003 Y86.344 E79.82217
G1 X108.583 Y86.344 E79.84193
G1 X98.844 Y96.083 E80.31135
G1 X98.844 Y96.662 E80.33111
G1 X109.162 Y86.344 E80.82848
G1 X109.742 Y86.344 E80.84824
G1 X98.844 Y97.242 E81.37355
G1 X98.844 Y97.822 E81.39331
G1 X110.322 Y86.344 E81.94657
G1 X110.902 Y86.344 E81.96633
G1 X98.844 Y98.402 E82.54754
G1 X98.844 Y98.981 E82.56730
G1 X111.156 Y86.670 E83.16075
G1 X111.156 Y87.250 E83.18051
G1 X98.844 Y99.561 E83.77396
G1 X98.844 Y100.141 E83.79372
G1 X111.156 Y87.830 E84.38717
G1 X111.156 Y88.409 E84.40693
G1 X98.844 Y100.720 E85.00038
G1 X98.844 Y101.300 E85.02014
G1 X111.156 Y88.989 E85.61359
G1 X111.156 Y89.569 E85.63335
G1 X98.844 Y101.880 E86.22680
G1 X98.844 Y102.460 E86.24656
G1 X111.156 Y90.149 E86.84001
G1 X111.156 Y90.728 E86.85977
G1 X98.844 Y103.039 E87.45322
G1 X98.844 Y103.619 E87.47298
G1 X111.156 Y91.308 E88.06643
G1 X111.156 Y91.888 E88.08619
G1 X98.844 Y104.199 E88.67964
G1 X98.844 Y104.779 E88.69940
G1 X111.156 Y92.467 E89.29285
G1 X111.156 Y93.047 E89.31261
G1 X98.844 Y105.358 E89.90606
G1 X98.844 Y105.938 E89.92582
G1 X111.156 Y93.627 E90.51927
G1 X111.156 Y94.207 E90.53903
G1 X98.844 Y106.518 E91.13248
G1 X98.844 Y107.097 E91.15224
G1 X111.156 Y94.786 E91.74569
G1 X111.156 Y95.366 E91.76545
G1 X98.844 Y107.677 E92.35890
G1 X98.844 Y108.257 E92.37866
G1 X111.156 Y95.946 E92.97211
G1 X111.156 Y96.526 E92.99187
G1 X98.844 Y108.837 E93.58532
G1 X98.844 Y109.416 E93.60508
G1 X111.156 Y97.105 E94.19853
G1 X111.156 Y97.685 E94.21829
G1 X98.844 Y109.996 E94.81174
G1 X98.844 Y110.576 E94.83150
G1 X111.156 Y98.265 E95.42495
G1 X111.156 Y98.844 E95.44471
G1 X98.844 Y111.156 E96.03816
G1 X98.844 Y111.735 E96.05792
G1 X111.156 Y99.424 E96.65137
G1 X111.156 Y100.004 E96.67113
G1 X98.844 Y112.315 E97.26458
G1 X98.844 Y112.895 E97.28434
G1 X111.156 Y100.584 E97.87779
G1 X111.156 Y101.163 E97.89755
G1 X98.844 Y113.474 E98.49100
G1 X98.844 Y114.054 E98.51076
G1 X111.156 Y101.743 E99.10421
G1 X111.156 Y102.323 E99.12397
G1 X98.844 Y114.634 E99.71742
G1 X98.844 Y115.214 E99.73719
G1 X111.156 Y102.903 E100.33063
G1 X111.156 Y103.482 E100.35040
G1 X98.844 Y115.793 E100.94385
G1 X98.844 Y116.373 E100.96361
G1 X111.156 Y104.062 E101.55706
G1 X111.156 Y104.642 E101.57682
G1 X98.844 Y116.953 E102.17027
G1 X98.844 Y117.532 E102.19003
G1 X111.156 Y105.221 E102.78348
G1 X111.156 Y105.801 E102.80324
G1 X98.844 Y118.112 E103.39669
G1 X98.844 Y118.692 E103.41645
G1 X111.156 Y106.381 E104.00990
G1 X111.156 Y106.961 E104.02966
G1 X98.844 Y119.272 E104.62311
G1 X98.844 Y119.851 E104.64287
G1 X111.156 Y107.540 E105.23632
G1 X111.156 Y108.120 E105.25608
G1 X98.844 Y120.431 E105.84953
G1 X98.844 Y121.011 E105.86929
G1 X111.156 Y108.700 E106.46274
G1 X111.156 Y109.280 E106.48250
G1 X98.844 Y121.591 E107.07595
G1 X98.844 Y122.170 E107.09571
G1 X111.156 Y109.859 E107.68916
G1 X111.156 Y110.439 E107.70892
G1 X98.844 Y122.750 E108.30237
G1 X98.844 Y123.330 E108.32213
G1 X111.156 Y111.019 E108.91558
G1 X111.156 Y111.598 E108.93534
G1 X99.098 Y123.656 E109.51655
G1 X99.678 Y123.656 E109.53631
G1 X111.156 Y112.178 E110.08957
G1 X111.156 Y112.758 E110.10933
G1 X100.258 Y123.656 E110.63465
G1 X100.838 Y123.656 E110.65441
G1 X111.156 Y113.338 E111.15178
G1 X111.156 Y113.917 E111.17154
G1 X101.417 Y123.656 E111.64097
G1 X101.997 Y123.656 E111.66073
G1 X111.156 Y114.497 E112.10221
G1 X111.156 Y115.077 E112.12197
G1 X102.577 Y123.656 E112.53550
G1 X103.157 Y123.656 E112.55526
G1 X111.156 Y115.657 E112.94085
G1 X111.156 Y116.236 E112.96061
G1 X103.736 Y123.656 E113.31826
G1 X104.316 Y123.656 E113.33802
G1 X111.156 Y116.816 E113.66772
G1 X111.156 Y117.396 E113.68748
G1 X104.896 Y123.656 E113.98923
G1 X105.475 Y123.656 E114.00899
G1 X111.156 Y117.975 E114.28280
G1 X111.156 Y118.555 E114.30256
G1 X106.055 Y123.656 E114.54842
G1 X106.635 Y123.656 E114.56818
G1 X111.156 Y119.135 E114.78610
G1 X111.156 Y119.715 E114.80586
G1 X107.215 Y123.656 E114.99583
G1 X107.794 Y123.656 E115.01559
G1 X111.156 Y120.294 E115.17762
G1 X111.156 Y120.874 E115.19738
G1 X108.374 Y123.656 E115.33146
G1 X108.954 Y123.656 E115.35122
G1 X111.156 Y121.454 E115.45735
G1 X111.156 Y122.034 E115.47711
G1 X109.534 Y123.656 E115.55530
G1 X110.113 Y123.656 E115.57506
G1 X111.156 Y122.613 E115.62531
G1 X111.156 Y123.193 E115.64507
G1 X110.510 Y123.839 E115.67620
;LAYER:2
G1 Z0.750 F7800.000
G1 X111.461 Y123.961
G1 F3000.000
G1 X98.539 Y123.961 E116.11358
G1 X98.539 Y86.039 E117.39719
G1 X111.461 Y86.039 E117.83457
G1 X111.461 Y123.901 E119.11614
G1 X111.868 Y124.368 F7800.000
G1 F3000.000
G1 X98.132 Y124.368 E119.58108
G1 X98.132 Y85.632 E120.89225
G1 X111.868 Y85.632 E121.35719
G1 X111.868 Y124.308 E122.66632
G1 X112.275 Y124.775 F7800.000
G1 F1500.000
G1 X97.725 Y124.775 E123.15882
G1 X97.725 Y85.225 E124.49754
G1 X112.275 Y85.225 E124.99004
G1 X112.275 Y124.715 E126.32673
G1 X111.908 Y124.617 F7800.000
G1 X111.339 Y86.990
G1 F1200.000
G1 X110.693 Y86.344 E126.35786
G1 X110.113 Y86.344 E126.37762
G1 X111.156 Y87.387 E126.42786
G1 X111.156 Y87.966 E126.44762
G1 X109.534 Y86.344 E126.52581
G1 X108.954 Y86.344 E126.54557
G1 X111.156 Y88.546 E126.65171
G1 X111.156 Y89.126 E126.67147
G1 X108.374 Y86.344 E126.80555
G1 X107.794 Y86.344 E126.82531
G1 X111.156 Y89.706 E126.98734
G1 X111.156 Y90.285 E127.00710
G1 X107.215 Y86.344 E127.19707
G1 X106.635 Y86.344 E127.21683
G1 X111.156 Y90.865 E127.43475
G1 X111.156 Y91.445 E127.45451
G1 X106.055 Y86.344 E127.70037
G1 X105.475 Y86.344 E127.72013
G1 X111.156 Y92.025 E127.99394
G1 X111.156 Y92.604 E128.01370
G1 X104.896 Y86.344 E128.31545
G1 X104.316 Y86.344 E128.33521
G1 X111.156 Y93.184 E128.66491
G1 X111.156 Y93.764 E128.68467
G1 X103.736 Y86.344 E129.04231
G1 X103.157 Y86.344 E129.06207
G1 X111.156 Y94.343 E129.44766
G1 X111.156 Y94.923 E129.46742
G1 X102.577 Y86.344 E129.88096
G1 X101.997 Y86.344 E129.90072
G1 X111.156 Y95.503 E130.34220
G1 X111.156 Y96.083 E130.36196
G1 X101.417 Y86.344 E130.83139
G1 X100.838 Y86.344 E130.85115
G1 X111.156 Y96.662 E131.34852
G1 X111.156 Y97.242 E131.36828
G1 X100.258 Y86.344 E131.89360
G1 X99.678 Y86.344 E131.91336
G1 X111.156 Y97.822 E132.46662
G1 X111.156 Y98.402 E132.48638
G1 X99.098 Y86.344 E133.06759
G1 X98.844 Y86.344 E133.07624
G1 X98.844 Y86.670 E133.08735
G1 X111.156 Y98.981 E133.68080
G1 X111.156 Y99.561 E133.70056
G1 X98.844 Y87.250 E134.29401
G1 X98.844 Y87.830 E134.31377
G1 X111.156 Y100.141 E134.90722
G1 X111.156 Y100.720 E134.92698
G1 X98.844 Y88.409 E135.52043
G1 X98.844 Y88.989 E135.54019
G1 X111.156 Y101.300 E136.13364
G1 X111.156 Y101.880 E136.15340
G1 X98.844 Y89.569 E136.74685
G1 X98.844 Y90.149 E136.76661
G1 X111.156 Y102.460 E137.36006
G1 X111.156 Y103.039 E137.37982
G1 X98.844 Y90.728 E137.97327
